X:1
T:Title
%%score { ( 1 3 ) | ( 2 4 ) }
L:1/8
Q:1/4=100
M:4/4
K:Bb
V:1 treble nm="Grand Piano"
V:3 treble 
V:2 bass 
V:4 bass 
V:1
 [DB]2 [FB]>c d2 [FB]2 | B>c BG [EG]2 [DF]2 | [DB]2 [FB]>c d2 [FB]2 | %3
w: D.~B.~Towner * * * *|||
[M:9/8] [=EB][EB][EA] [EB] [Ec]2 z _E2 |[M:4/4] [DB]2 [FB]>c dd [FB]2 | B>c BG [EG]2 [DF]2 | %6
w: |||
 F[FB]Bc dd[Ge]c |[M:9/8] BBA c c2 [DB]3 |[M:4/4] [DF]>[DF] [FB][Fc] [Fd]2 [DFB]2 | %9
w: |||
 [EG]2 [GB]2 z4 |[M:3/4] [DF][DF] [FB][Fc] [Fd][Fd] |[M:1/4] [EFc][DFB] | %12
w: |||
[M:4/4] z4 c4[K:bass][K:treble] | [DF]>[DF] [FB][Fc] [Fd]2 [DFB]2 | [EG]2 [GB]2 z4 | %15
w: |||
[M:3/4] [DF][DF] [FB]c dd |[M:1/4] [Ge]c |[M:4/4] z2 A2 z4 |] %18
w: |||
V:2
 [B,,F,]2 [D,B,]>[K:treble][F,A,F] [B,F]2[K:bass] [D,B,]2 | %1
 [E,G,E]>[E,G,E] [E,G,E][E,B,E] [B,,B,]2 [B,,B,]2 | %2
 [B,,F,]2 [D,B,]>[K:treble][F,A,F] [B,F]2[K:bass] [D,B,]2 | %3
[M:9/8] [C,G,][C,G,][C,C] [C,C] [C,B,]2 [F,A,]3 | %4
[M:4/4] [B,,B,]2 [D,B,]>[K:treble][F,A,F] [B,F][B,F][K:bass] [D,B,]2 | %5
 [E,G,E]>[E,G,E] [E,G,E][E,B,E] [B,,B,]2 [B,,B,]2 | %6
 [D,B,][D,B,][K:treble][F,DF][F,EF] [B,DF][B,F][K:bass][E,B,][E,G,E] | %7
[M:9/8] [F,D][F,D][F,C] [F,E] [F,E]2 [B,,F,]3 |[M:4/4] [B,,B,]>[B,,B,] [D,B,][F,A,] B,2 B,,2 | %9
 E,>E, E,E, [B,,B,]2 [B,,B,][B,,B,] |[M:3/4] [B,,B,][B,,B,] [D,B,][F,A,] B,B, |[M:1/4] B,,B,, | %12
[M:4/4] z4 [A,F]4 | [B,,B,]>[B,,B,] [D,B,][F,A,] B,2 B,,2 | E,>E, E,E, [B,,B,]2 [B,,B,][B,,B,] | %15
[M:3/4] [B,,B,][B,,B,] [D,B,][K:treble][F,A,F] [B,F][B,F] |[M:1/4][K:bass] [E,B,][E,G,E] | %17
[M:4/4] [F,D]2 .[F,C]2 [B,,F,]4 |] %18
V:3
 x8 | x8 | x8 |[M:9/8] z3 z3 F3 |[M:4/4] x8 | x8 | x8 |[M:9/8] x9 |[M:4/4] x8 | %9
 B,>B, B,B, [EG]2 [DF][DF] |[M:3/4] x6 |[M:1/4] x2 | %12
[M:4/4] [C=EG]2 [Ec]2 z[K:bass] E,D,[K:treble]_E | x8 | B,>B, B,B, [EG]2 [DF][DF] |[M:3/4] x6 | %16
[M:1/4] x2 |[M:4/4] B2 z E [DB]4 |] %18
V:4
 x7/2[K:treble] x5/2[K:bass] x2 | x8 | x7/2[K:treble] x5/2[K:bass] x2 |[M:9/8] x9 | %4
[M:4/4] x7/2[K:treble] x5/2[K:bass] x2 | x8 | x2[K:treble] x4[K:bass] x2 |[M:9/8] x9 |[M:4/4] x8 | %9
 x8 |[M:3/4] x6 |[M:1/4] x2 |[M:4/4] C,2 [C,B,]2 .F,2 z C, | x8 | x8 |[M:3/4] x3[K:treble] x3 | %16
[M:1/4][K:bass] x2 |[M:4/4] x8 |] %18

